epam-assets/icon-sources/18/media-replay.svg

<svg width="18" height="18" viewBox="0 0 18 18" fill="none" xmlns="http://www.w3.org/2000/svg">
<g id="18/media-replay">
<path id="icon" d="M9 15.75C8.0625 15.75 7.1845 15.572 6.366 15.216C5.547 14.8595 4.8345 14.378 4.2285 13.7715C3.622 13.1655 3.1405 12.453 2.784 11.634C2.428 10.8155 2.25 9.9375 2.25 9H3.75C3.75 10.4625 4.2595 11.703 5.2785 12.7215C6.297 13.7405 7.5375 14.25 9 14.25C10.4625 14.25 11.703 13.7405 12.7215 12.7215C13.7405 11.703 14.25 10.4625 14.25 9C14.25 7.5375 13.7405 6.29675 12.7215 5.27775C11.703 4.25925 10.4625 3.75 9 3.75H8.8875L10.05 4.9125L9 6L6 3L9 0L10.05 1.0875L8.8875 2.25H9C9.9375 2.25 10.8158 2.42825 11.6347 2.78475C12.4532 3.14075 13.1658 3.62175 13.7723 4.22775C14.3783 4.83425 14.8595 5.54675 15.216 6.36525C15.572 7.18425 15.75 8.0625 15.75 9C15.75 9.9375 15.572 10.8155 15.216 11.634C14.8595 12.453 14.3783 13.1655 13.7723 13.7715C13.1658 14.378 12.4532 14.8595 11.6347 15.216C10.8158 15.572 9.9375 15.75 9 15.75Z" fill="#6C6F80"/>
</g>
</svg>

<svg xmlns="http://www.w3.org/2000/svg" width="18" height="18" fill="none" viewBox="0 0 18 18">
  <path fill="#6C6F80" d="M9 15.75a6.532 6.532 0 0 1-2.634-.534 6.857 6.857 0 0 1-2.137-1.444 6.857 6.857 0 0 1-1.445-2.138A6.532 6.532 0 0 1 2.25 9h1.5c0 1.463.51 2.703 1.529 3.722C6.296 13.74 7.537 14.25 9 14.25s2.703-.51 3.722-1.528C13.74 11.703 14.25 10.462 14.25 9c0-1.463-.51-2.703-1.528-3.722C11.703 4.259 10.462 3.75 9 3.75h-.113l1.163 1.162L9 6 6 3l3-3 1.05 1.087L8.887 2.25H9a6.52 6.52 0 0 1 2.635.535 6.865 6.865 0 0 1 2.137 1.443 6.875 6.875 0 0 1 1.444 2.137A6.54 6.54 0 0 1 15.75 9c0 .938-.178 1.816-.534 2.634a6.864 6.864 0 0 1-1.444 2.137 6.87 6.87 0 0 1-2.137 1.445A6.536 6.536 0 0 1 9 15.75Z"/>
</svg>
